X:1
T:Title
%%score { ( 1 3 ) | ( 2 4 ) }
L:1/8
M:4/4
K:G
V:1 treble nm="Grand Piano"
V:3 treble 
V:2 bass 
V:4 bass 
V:1
 z4 z2 z[Q:1/4=100] [B,D] | [DB][DB][DB][DB] [Ec]2 [DB][DA] | [EG][EA][EG][CE] [B,D]3 [B,D] | %3
 [B,D][DG][DG]A BdBG | [FA]6- [FA]D | [DB][DB][DB][DB] [Ec]2 [DB][DA] | %6
 [EG][EA][EG][CE] [B,D]3 [B,D] | [CE][DF][^DG][Dc] [=DB]2 [CA]2 |[M:3/4] [G,B,G]6 |[M:1/4] DD | %10
[M:4/4] [B,G]<[B,G] [B,G][CA] [DB]<[B,G] FA | G6 z2 | d<d dd e<d B>G | [FA]6 z2 | GABA G2 FG | %15
 [FA][GB][Ac][GB] [FA]2 [DGB][DAc] | [DBd]<[DBd] [DGB][B,=FG] [CEc]<[CEA] [B,DG][A,C^F] | %17
[M:3/4] [G,B,DG]6 |] %18
V:2
 z4 z2 z [G,,G,] | [G,,G,][G,,G,][G,,G,][G,,G,] [G,,G,]2 [G,,G,][B,,G,] | %2
 [C,G,][C,G,][C,G,][C,G,] [G,,G,]3 [G,,G,] | %3
 [G,,G,][B,,G,][B,,G,][D,F,D] [G,D][G,B,D][G,B,D][E,CE] | [D,D]6- [D,D][D,F,] | %5
 [G,,G,][G,,G,][G,,G,][G,,G,] [G,,G,]2 [G,,G,][B,,G,] | [C,G,][C,G,][C,G,][C,G,] [G,,G,]3 [G,,G,] | %7
 [C,G,][C,G,][C,G,][C,G,] [D,G,]2 [D,F,]2 |[M:3/4] G,,6 |[M:1/4] D,D, | %10
[M:4/4] [G,,G,]<[G,,G,] [G,,G,][G,,G,] [G,,G,]<[G,,G,] [D,CD][D,CD] | D6[K:treble] z2 | %12
 [G,B,G]<[G,B,G] [G,B,G][G,B,G] [G,CG]<[G,B,G] [G,DG]>[K:bass][E,C] | D2 z2 z4 | %14
 [G,B,D][G,CD][G,DG][G,CD] [G,B,D]2[K:bass] [A,CD][G,B,D] | [D,D][D,D][D,D][D,D] [D,D]2 G,G, | %16
 G,<G, G,G, C,<C, D,D, |[M:3/4] G,,6 |] %18
V:3
 x8 | x8 | x8 | x8 | x8 | x8 | x8 | x8 |[M:3/4] x6 |[M:1/4] x2 |[M:4/4] x8 | z2 B,B, B,2 GB | x8 | %13
 z2 D>D DCDD | x8 | x8 | x8 |[M:3/4] x6 |] %18
V:4
 x8 | x8 | x8 | x8 | x8 | x8 | x8 | x8 |[M:3/4] x6 |[M:1/4] x2 |[M:4/4] x8 | %11
 [G,B,]2 G,G, G,2[K:treble] [G,B,D][G,DG] | x15/2[K:bass] x/ | D,6 [D,B,][D,C] | x6[K:bass] x2 | %15
 x8 | x8 |[M:3/4] x6 |] %18

